X: 18753
T: Ievan Polkka
R: polka
M: 2/4
K: Aminor
|:A2 AB|cA Ac|BG GB|c/B/A/G/ AE|
A2 AB|cA Ac|de/d/ cB|AG A2:|
|:ed ce|dB Bc|de/d/ cB|AB cA|
ed ce|dB Bc|de/d/ cB|AG A2:|

